!!!Genre:	Karahod
!!!Mode:	Altered Dorian
!!!Listening/dance:	dance
!!!One_Mode:	yes
**kern
*thru
*part1
*staff1
*clefG2
*k[b-]
*g:dor
*M2/4
=1-
*>A
8r
16ddLL
16ddJJ
8ddL
8ddJ
=2
16cc#XLL
16eeJ
8ddJ
4g
=3
8r
8gL
8a
8b-J
=4
4.cc#tX
8b-
=5
8r
8ffL
8ee
8ddJ
=6
16cc#XLL
16eeJ
8ddJ
4b-
=7
16ddLL
16cc#XJ
8b-J
16b-LL
16aJ
8gJ
*>A1
=8
8gL
8b-
8dd
8ggJ
*>A2
=9:|!
4.g
8d
=10!|:
*>B
16gLL
16f#X
16g
16aJJ
16b-LL
16a
16b-
16cc#XJJ
=11
16ddLL
16cc#X
16dd
16eeJJ
16ffnLL
16ee
16ff
16ggJJ
=12
16ffLL
16ee
16dd
16ffJJ
16eeLL
16dd
16cc#X
16eeJJ
=13
8ddL
8gJ
8aL
8b-J
=14
8cc#XtL
8b-J
4dd
=15
8r
8gL
8a
8b-J
*>B1
=16
4.cc#X
8b-
=17
16ddLL
16cc#XJ
8b-J
16b-LL
16aJ
8gJ
*>B2
=18:|!
16ddLL
16cc#XJ
8b-J
16b-LL
16aJ
8gJ
=19
2g
==
*-
